X: 13
T: The Caribou
R: reel
M: 4/4
L: 1/8
K: Edor
|:B2ED EFGA|B2ED EFGE|D2FD DADD|BDDA DDFD|
E2ED EFGA|Bdef g2fg|afge efec|1 dBAF EdcA:|2 dBAF E4||
|:Be2B efed|Bdef edBd|Ad2A d3e|fedf edBA|
Be2B efed|Bdef g2fg|afge efec|dBAF E4:|

